Newaita-dark/apps/16/nextcloud.svg

<svg height="16" viewBox="0 0 16 16" width="16" xmlns="http://www.w3.org/2000/svg" xmlns:xlink="http://www.w3.org/1999/xlink"><linearGradient id="a" gradientUnits="userSpaceOnUse" x1="7.93826" x2="7.93826" y1="14.0169685" y2="14.67849050002"><stop offset="0" stop-opacity=".27451"/><stop offset="1" stop-opacity="0"/></linearGradient><linearGradient id="b"><stop offset="0" stop-opacity=".313726"/><stop offset=".222222" stop-opacity=".27451"/><stop offset="1" stop-opacity="0"/></linearGradient><radialGradient id="c" cx="450.908936" cy="189.579361" gradientTransform="matrix(.00000009 -.0390662 -.0703192 -.00000005 26.065324 31.797666)" gradientUnits="userSpaceOnUse" r="21.166656" xlink:href="#b"/><radialGradient id="d" cx="450.908936" cy="189.579361" gradientTransform="matrix(-.00000009 .0390662 .0703192 .00000005 -10.188807 -3.763739)" gradientUnits="userSpaceOnUse" r="21.166656" xlink:href="#b"/><radialGradient id="e" cx="450.908936" cy="189.579361" gradientTransform="matrix(-.00000009 -.0390662 .0703192 -.00000005 -10.188807 31.797666)" gradientUnits="userSpaceOnUse" r="21.166656" xlink:href="#b"/><radialGradient id="f" cx="450.908936" cy="189.579361" gradientTransform="matrix(.00000009 .0390662 -.0703192 .00000005 26.065323 -3.76374)" gradientUnits="userSpaceOnUse" r="21.166656" xlink:href="#b"/><linearGradient id="g" gradientUnits="userSpaceOnUse" x1="5.29217449998" x2="5.29217449998" y1="14.0169675" y2="1.44805300003"><stop offset="0" stop-color="#2979ff"/><stop offset="1" stop-color="#448aff"/></linearGradient><linearGradient id="h" gradientUnits="userSpaceOnUse" x1="7.93825869559" x2="7.9382592" y1="14.01696600048" y2="1.44805535241"><stop offset="0" stop-color="#e0e0e0"/><stop offset="1" stop-color="#eee"/></linearGradient><path d="m2.976562 13.96875h9.921876v.734375h-9.921876zm0 0" fill="url(#a)"/><path d="m12.898438 14.015625h1.324218v-.660156h-1.324218zm0 0" fill="url(#c)"/><path d="m2.976562 14.015625h-1.324218v.664063h1.324218zm0 0" fill="url(#d)"/><path d="m2.976562 14.015625h-1.324218v-.660156h1.324218zm0 0" fill="url(#e)"/><path d="m12.898438 14.015625h1.324218v.664063h-1.324218zm0 0" fill="url(#f)"/><path d="m2.316406 1.449219h11.246094c.363281 0 .660156.296875.660156.660156v11.246094c0 .367187-.296875.660156-.660156.660156h-11.246094c-.367187 0-.664062-.292969-.664062-.660156v-11.246094c0-.363281.296875-.660156.664062-.660156zm0 0" fill="url(#g)"/><path d="m2.316406 1.449219c-.367187 0-.664062.292969-.664062.660156v.082031c0-.367187.296875-.660156.664062-.660156h11.246094c.363281 0 .660156.292969.660156.660156v-.082031c0-.367187-.296875-.660156-.660156-.660156zm0 0" fill="#e6e6e6" fill-opacity=".392157"/><path d="m2.316406 14.015625c-.367187 0-.664062-.292969-.664062-.660156v-.082031c0 .367187.296875.660156.664062.660156h11.246094c.363281 0 .660156-.292969.660156-.660156v.082031c0 .367187-.296875.660156-.660156.660156zm0 0" fill-opacity=".196078"/><path d="m74.117922-168.629428h359.840637c11.62389 0 21.122983 9.499093 21.122983 21.122983v359.840637c0 11.748878-9.499093 21.122982-21.122983 21.122982h-359.840637c-11.748878 0-21.247971-9.374104-21.247971-21.122982v-359.840637c0-11.62389 9.499093-21.122983 21.247971-21.122983zm0 0" fill="none" stroke="#212121" stroke-linecap="round" stroke-width="3" transform="matrix(.031253 0 0 .031253 0 6.719392)"/><path d="m7.9375 5.746094c-.851562 0-1.570312.53125-1.855469 1.28125-.234375-.371094-.648437-.617188-1.121093-.617188-.734376 0-1.324219.589844-1.324219 1.324219 0 .730469.589843 1.320313 1.324219 1.320313.472656 0 .886718-.246094 1.121093-.617188.285157.75 1.003907 1.28125 1.855469 1.28125s1.574219-.53125 1.855469-1.28125c.234375.371094.648437.617188 1.121093.617188.734376 0 1.324219-.589844 1.324219-1.320313 0-.734375-.589843-1.324219-1.324219-1.324219-.472656 0-.886718.246094-1.121093.617188-.28125-.75-1.003907-1.28125-1.855469-1.28125zm0 .992187c.550781 0 .992188.445313.992188.996094 0 .546875-.441407.992187-.992188.992187s-.992188-.445312-.992188-.992187c0-.550781.441407-.996094.992188-.996094zm-2.976562.664063c.183593 0 .332031.148437.332031.332031 0 .179687-.148438.328125-.332031.328125-.183594 0-.332032-.148438-.332032-.328125 0-.183594.148438-.332031.332032-.332031zm5.953124 0c.183594 0 .332032.148437.332032.332031 0 .179687-.148438.328125-.332032.328125-.183593 0-.328124-.148438-.328124-.328125 0-.183594.144531-.332031.328124-.332031zm0 0" fill="url(#h)"/><path d="m7.9375 5.746094c-.851562 0-1.570312.53125-1.855469 1.28125-.234375-.371094-.648437-.617188-1.121093-.617188-.734376 0-1.324219.589844-1.324219 1.324219 0 .027344.003906.054687.003906.082031.042969-.695312.617187-1.242187 1.320313-1.242187.472656 0 .886718.246093 1.121093.617187.285157-.75 1.003907-1.277344 1.855469-1.277344s1.574219.527344 1.855469 1.277344c.234375-.371094.648437-.617187 1.121093-.617187.707032 0 1.277344.546875 1.320313 1.242187.003906-.027344.003906-.054687.003906-.082031 0-.734375-.589843-1.324219-1.324219-1.324219-.472656 0-.886718.246094-1.121093.617188-.28125-.75-1.003907-1.28125-1.855469-1.28125zm-3.296875 2.070312c-.007813.023438-.011719.054688-.011719.082032 0 .183593.148438.332031.332032.332031.183593 0 .332031-.148438.332031-.332031 0-.027344-.003907-.058594-.011719-.082032-.035156.140625-.164062.246094-.320312.246094-.152344 0-.285157-.105469-.320313-.246094zm2.308594 0c-.003907.027344-.003907.054688-.003907.082032 0 .550781.441407.992187.992188.992187s.992188-.441406.992188-.992187c0-.027344 0-.054688-.003907-.082032-.039062.507813-.464843.910156-.988281.910156-.519531 0-.945312-.402343-.988281-.910156zm3.644531 0c-.003906.023438-.007812.054688-.007812.082032 0 .183593.144531.332031.328124.332031.183594 0 .332032-.148438.332032-.332031 0-.027344-.003906-.058594-.011719-.082032-.035156.140625-.164063.246094-.320313.246094-.152343 0-.28125-.105469-.320312-.246094zm0 0" fill="#fff" fill-opacity=".987097"/><path d="m7.9375 6.738281c-.550781 0-.992188.441407-.992188.992188 0 .035156.003907.070312.007813.101562.050781-.5.46875-.886719.984375-.886719s.9375.386719.988281.886719c.003907-.03125.003907-.066406.003907-.101562 0-.550781-.441407-.992188-.992188-.992188zm-2.976562.660157c-.183594 0-.332032.148437-.332032.332031 0 .035156.007813.070312.019532.101562.042968-.132812.164062-.226562.3125-.226562.148437 0 .273437.09375.316406.226562.007812-.03125.015625-.066406.015625-.101562 0-.183594-.148438-.332031-.332031-.332031zm5.953124 0c-.183593 0-.328124.148437-.328124.332031 0 .035156.003906.070312.015624.101562.042969-.132812.167969-.226562.3125-.226562.148438 0 .273438.09375.316407.226562.007812-.03125.015625-.066406.015625-.101562 0-.183594-.148438-.332031-.332032-.332031zm-7.273437.433593c0 .035157-.003906.070313-.003906.105469 0 .730469.589843 1.320312 1.324219 1.320312.472656 0 .886718-.246093 1.121093-.617187.285157.75 1.003907 1.28125 1.855469 1.28125s1.574219-.53125 1.855469-1.28125c.234375.371094.648437.617187 1.121093.617187.734376 0 1.324219-.589843 1.324219-1.320312 0-.035156 0-.070312-.003906-.105469-.050781.683594-.621094 1.222657-1.320313 1.222657-.472656 0-.886718-.246094-1.121093-.621094-.28125.75-1.003907 1.28125-1.855469 1.28125s-1.570312-.53125-1.855469-1.28125c-.234375.375-.648437.621094-1.121093.621094-.699219 0-1.265626-.539063-1.320313-1.222657zm0 0" fill-opacity=".235294"/><path d="m959.908384 694.894307c-102.982297 0-189.903135 64.245837-224.388033 154.945842-28.343751-44.877607-78.417712-74.638546-135.577611-74.638546-88.810421 0-160.142196 71.331775-160.142196 160.142196 0 88.338026 71.331775 159.6698 160.142196 159.6698 57.159899 0 107.23386-29.760939 135.577611-74.638545 34.484898 90.700004 121.405736 154.945841 224.388033 154.945841s190.375531-64.245837 224.388032-154.945841c28.343752 44.877606 78.417713 74.638545 135.577612 74.638545 88.810421 0 160.142196-71.331774 160.142196-159.6698 0-88.810421-71.331775-160.142196-160.142196-160.142196-57.159899 0-107.23386 29.760939-135.577612 74.638546-34.012501-90.700005-121.405735-154.945842-224.388032-154.945842zm0 119.988548c66.607816 0 119.988548 53.853128 119.988548 120.460944 0 66.13542-53.380732 119.988548-119.988548 119.988548s-119.988548-53.853128-119.988548-119.988548c0-66.607816 53.380732-120.460944 119.988548-120.460944zm-359.965644 80.307296c22.202605 0 40.153648 17.951043 40.153648 40.153648 0 21.73021-17.951043 39.681252-40.153648 39.681252s-40.153648-17.951042-40.153648-39.681252c0-22.202605 17.951043-40.153648 40.153648-40.153648zm719.931288 0c22.202605 0 40.153648 17.951043 40.153648 40.153648 0 21.73021-17.951043 39.681252-40.153648 39.681252-22.202606 0-39.681252-17.951042-39.681252-39.681252 0-22.202605 17.478646-40.153648 39.681252-40.153648zm0 0" fill="none" stroke="#212121" stroke-linecap="round" stroke-linejoin="round" stroke-width="11.338583" transform="scale(.00826902)"/></svg>

<?xml version="1.0" encoding="UTF-8"?>
<svg xmlns="http://www.w3.org/2000/svg" xmlns:xlink="http://www.w3.org/1999/xlink" width="16px" height="16px" viewBox="0 0 16 16" version="1.1">
<defs>
<linearGradient id="linear0" gradientUnits="userSpaceOnUse" x1="254" y1="233.5" x2="254" y2="254.666672" gradientTransform="matrix(0.031253,0,0,0.031253,-0.00000190753,6.719393)">
<stop offset="0" style="stop-color:rgb(0%,0%,0%);stop-opacity:0.27451;"/>
<stop offset="1" style="stop-color:rgb(0%,0%,0%);stop-opacity:0;"/>
</linearGradient>
<radialGradient id="radial0" gradientUnits="userSpaceOnUse" cx="450.908936" cy="189.579361" fx="450.908936" fy="189.579361" r="21.166656" gradientTransform="matrix(0.0000000870852,-0.0390662,-0.0703192,-0.0000000507693,26.065324,31.797666)">
<stop offset="0" style="stop-color:rgb(0%,0%,0%);stop-opacity:0.313726;"/>
<stop offset="0.222222" style="stop-color:rgb(0%,0%,0%);stop-opacity:0.27451;"/>
<stop offset="1" style="stop-color:rgb(0%,0%,0%);stop-opacity:0;"/>
</radialGradient>
<radialGradient id="radial1" gradientUnits="userSpaceOnUse" cx="450.908936" cy="189.579361" fx="450.908936" fy="189.579361" r="21.166656" gradientTransform="matrix(-0.0000000870852,0.0390662,0.0703192,0.0000000507693,-10.188807,-3.763739)">
<stop offset="0" style="stop-color:rgb(0%,0%,0%);stop-opacity:0.313726;"/>
<stop offset="0.222222" style="stop-color:rgb(0%,0%,0%);stop-opacity:0.27451;"/>
<stop offset="1" style="stop-color:rgb(0%,0%,0%);stop-opacity:0;"/>
</radialGradient>
<radialGradient id="radial2" gradientUnits="userSpaceOnUse" cx="450.908936" cy="189.579361" fx="450.908936" fy="189.579361" r="21.166656" gradientTransform="matrix(-0.0000000870852,-0.0390662,0.0703192,-0.0000000507693,-10.188807,31.797666)">
<stop offset="0" style="stop-color:rgb(0%,0%,0%);stop-opacity:0.313726;"/>
<stop offset="0.222222" style="stop-color:rgb(0%,0%,0%);stop-opacity:0.27451;"/>
<stop offset="1" style="stop-color:rgb(0%,0%,0%);stop-opacity:0;"/>
</radialGradient>
<radialGradient id="radial3" gradientUnits="userSpaceOnUse" cx="450.908936" cy="189.579361" fx="450.908936" fy="189.579361" r="21.166656" gradientTransform="matrix(0.0000000870852,0.0390662,-0.0703192,0.0000000507693,26.065323,-3.76374)">
<stop offset="0" style="stop-color:rgb(0%,0%,0%);stop-opacity:0.313726;"/>
<stop offset="0.222222" style="stop-color:rgb(0%,0%,0%);stop-opacity:0.27451;"/>
<stop offset="1" style="stop-color:rgb(0%,0%,0%);stop-opacity:0;"/>
</radialGradient>
<linearGradient id="linear1" gradientUnits="userSpaceOnUse" x1="169.333328" y1="233.5" x2="169.333328" y2="-168.666656" gradientTransform="matrix(0.031253,0,0,0.031253,0,6.719392)">
<stop offset="0" style="stop-color:rgb(16.078432%,47.450981%,100%);stop-opacity:1;"/>
<stop offset="1" style="stop-color:rgb(26.666668%,54.11765%,100%);stop-opacity:1;"/>
</linearGradient>
<linearGradient id="linear2" gradientUnits="userSpaceOnUse" x1="959.999939" y1="1695.118164" x2="960" y2="175.118134" gradientTransform="matrix(0.00826902,0,0,0.00826902,0,0)">
<stop offset="0" style="stop-color:rgb(87.843138%,87.843138%,87.843138%);stop-opacity:1;"/>
<stop offset="1" style="stop-color:rgb(93.333334%,93.333334%,93.333334%);stop-opacity:1;"/>
</linearGradient>
</defs>
<g id="surface1">
<path style=" stroke:none;fill-rule:nonzero;fill:url(#linear0);" d="M 2.976562 13.96875 L 12.898438 13.96875 L 12.898438 14.703125 L 2.976562 14.703125 Z M 2.976562 13.96875 "/>
<path style=" stroke:none;fill-rule:nonzero;fill:url(#radial0);" d="M 12.898438 14.015625 L 14.222656 14.015625 L 14.222656 13.355469 L 12.898438 13.355469 Z M 12.898438 14.015625 "/>
<path style=" stroke:none;fill-rule:nonzero;fill:url(#radial1);" d="M 2.976562 14.015625 L 1.652344 14.015625 L 1.652344 14.679688 L 2.976562 14.679688 Z M 2.976562 14.015625 "/>
<path style=" stroke:none;fill-rule:nonzero;fill:url(#radial2);" d="M 2.976562 14.015625 L 1.652344 14.015625 L 1.652344 13.355469 L 2.976562 13.355469 Z M 2.976562 14.015625 "/>
<path style=" stroke:none;fill-rule:nonzero;fill:url(#radial3);" d="M 12.898438 14.015625 L 14.222656 14.015625 L 14.222656 14.679688 L 12.898438 14.679688 Z M 12.898438 14.015625 "/>
<path style=" stroke:none;fill-rule:nonzero;fill:url(#linear1);" d="M 2.316406 1.449219 L 13.5625 1.449219 C 13.925781 1.449219 14.222656 1.746094 14.222656 2.109375 L 14.222656 13.355469 C 14.222656 13.722656 13.925781 14.015625 13.5625 14.015625 L 2.316406 14.015625 C 1.949219 14.015625 1.652344 13.722656 1.652344 13.355469 L 1.652344 2.109375 C 1.652344 1.746094 1.949219 1.449219 2.316406 1.449219 Z M 2.316406 1.449219 "/>
<path style=" stroke:none;fill-rule:nonzero;fill:rgb(90.196079%,90.196079%,90.196079%);fill-opacity:0.392157;" d="M 2.316406 1.449219 C 1.949219 1.449219 1.652344 1.742188 1.652344 2.109375 L 1.652344 2.191406 C 1.652344 1.824219 1.949219 1.53125 2.316406 1.53125 L 13.5625 1.53125 C 13.925781 1.53125 14.222656 1.824219 14.222656 2.191406 L 14.222656 2.109375 C 14.222656 1.742188 13.925781 1.449219 13.5625 1.449219 Z M 2.316406 1.449219 "/>
<path style=" stroke:none;fill-rule:nonzero;fill:rgb(0%,0%,0%);fill-opacity:0.196078;" d="M 2.316406 14.015625 C 1.949219 14.015625 1.652344 13.722656 1.652344 13.355469 L 1.652344 13.273438 C 1.652344 13.640625 1.949219 13.933594 2.316406 13.933594 L 13.5625 13.933594 C 13.925781 13.933594 14.222656 13.640625 14.222656 13.273438 L 14.222656 13.355469 C 14.222656 13.722656 13.925781 14.015625 13.5625 14.015625 Z M 2.316406 14.015625 "/>
<path style="fill:none;stroke-width:3;stroke-linecap:round;stroke-linejoin:miter;stroke:rgb(12.941177%,12.941177%,12.941177%);stroke-opacity:1;stroke-miterlimit:4;" d="M 74.117922 -168.629428 L 433.958559 -168.629428 C 445.582449 -168.629428 455.081542 -159.130335 455.081542 -147.506445 L 455.081542 212.334192 C 455.081542 224.08307 445.582449 233.457174 433.958559 233.457174 L 74.117922 233.457174 C 62.369044 233.457174 52.869951 224.08307 52.869951 212.334192 L 52.869951 -147.506445 C 52.869951 -159.130335 62.369044 -168.629428 74.117922 -168.629428 Z M 74.117922 -168.629428 " transform="matrix(0.031253,0,0,0.031253,0,6.719392)"/>
<path style=" stroke:none;fill-rule:nonzero;fill:url(#linear2);" d="M 7.9375 5.746094 C 7.085938 5.746094 6.367188 6.277344 6.082031 7.027344 C 5.847656 6.65625 5.433594 6.410156 4.960938 6.410156 C 4.226562 6.410156 3.636719 7 3.636719 7.734375 C 3.636719 8.464844 4.226562 9.054688 4.960938 9.054688 C 5.433594 9.054688 5.847656 8.808594 6.082031 8.4375 C 6.367188 9.1875 7.085938 9.71875 7.9375 9.71875 C 8.789062 9.71875 9.511719 9.1875 9.792969 8.4375 C 10.027344 8.808594 10.441406 9.054688 10.914062 9.054688 C 11.648438 9.054688 12.238281 8.464844 12.238281 7.734375 C 12.238281 7 11.648438 6.410156 10.914062 6.410156 C 10.441406 6.410156 10.027344 6.65625 9.792969 7.027344 C 9.511719 6.277344 8.789062 5.746094 7.9375 5.746094 Z M 7.9375 6.738281 C 8.488281 6.738281 8.929688 7.183594 8.929688 7.734375 C 8.929688 8.28125 8.488281 8.726562 7.9375 8.726562 C 7.386719 8.726562 6.945312 8.28125 6.945312 7.734375 C 6.945312 7.183594 7.386719 6.738281 7.9375 6.738281 Z M 4.960938 7.402344 C 5.144531 7.402344 5.292969 7.550781 5.292969 7.734375 C 5.292969 7.914062 5.144531 8.0625 4.960938 8.0625 C 4.777344 8.0625 4.628906 7.914062 4.628906 7.734375 C 4.628906 7.550781 4.777344 7.402344 4.960938 7.402344 Z M 10.914062 7.402344 C 11.097656 7.402344 11.246094 7.550781 11.246094 7.734375 C 11.246094 7.914062 11.097656 8.0625 10.914062 8.0625 C 10.730469 8.0625 10.585938 7.914062 10.585938 7.734375 C 10.585938 7.550781 10.730469 7.402344 10.914062 7.402344 Z M 10.914062 7.402344 "/>
<path style=" stroke:none;fill-rule:nonzero;fill:rgb(100%,100%,100%);fill-opacity:0.987097;" d="M 7.9375 5.746094 C 7.085938 5.746094 6.367188 6.277344 6.082031 7.027344 C 5.847656 6.65625 5.433594 6.410156 4.960938 6.410156 C 4.226562 6.410156 3.636719 7 3.636719 7.734375 C 3.636719 7.761719 3.640625 7.789062 3.640625 7.816406 C 3.683594 7.121094 4.257812 6.574219 4.960938 6.574219 C 5.433594 6.574219 5.847656 6.820312 6.082031 7.191406 C 6.367188 6.441406 7.085938 5.914062 7.9375 5.914062 C 8.789062 5.914062 9.511719 6.441406 9.792969 7.191406 C 10.027344 6.820312 10.441406 6.574219 10.914062 6.574219 C 11.621094 6.574219 12.191406 7.121094 12.234375 7.816406 C 12.238281 7.789062 12.238281 7.761719 12.238281 7.734375 C 12.238281 7 11.648438 6.410156 10.914062 6.410156 C 10.441406 6.410156 10.027344 6.65625 9.792969 7.027344 C 9.511719 6.277344 8.789062 5.746094 7.9375 5.746094 Z M 4.640625 7.816406 C 4.632812 7.839844 4.628906 7.871094 4.628906 7.898438 C 4.628906 8.082031 4.777344 8.230469 4.960938 8.230469 C 5.144531 8.230469 5.292969 8.082031 5.292969 7.898438 C 5.292969 7.871094 5.289062 7.839844 5.28125 7.816406 C 5.246094 7.957031 5.117188 8.0625 4.960938 8.0625 C 4.808594 8.0625 4.675781 7.957031 4.640625 7.816406 Z M 6.949219 7.816406 C 6.945312 7.84375 6.945312 7.871094 6.945312 7.898438 C 6.945312 8.449219 7.386719 8.890625 7.9375 8.890625 C 8.488281 8.890625 8.929688 8.449219 8.929688 7.898438 C 8.929688 7.871094 8.929688 7.84375 8.925781 7.816406 C 8.886719 8.324219 8.460938 8.726562 7.9375 8.726562 C 7.417969 8.726562 6.992188 8.324219 6.949219 7.816406 Z M 10.59375 7.816406 C 10.589844 7.839844 10.585938 7.871094 10.585938 7.898438 C 10.585938 8.082031 10.730469 8.230469 10.914062 8.230469 C 11.097656 8.230469 11.246094 8.082031 11.246094 7.898438 C 11.246094 7.871094 11.242188 7.839844 11.234375 7.816406 C 11.199219 7.957031 11.070312 8.0625 10.914062 8.0625 C 10.761719 8.0625 10.632812 7.957031 10.59375 7.816406 Z M 10.59375 7.816406 "/>
<path style=" stroke:none;fill-rule:nonzero;fill:rgb(0%,0%,0%);fill-opacity:0.235294;" d="M 7.9375 6.738281 C 7.386719 6.738281 6.945312 7.179688 6.945312 7.730469 C 6.945312 7.765625 6.949219 7.800781 6.953125 7.832031 C 7.003906 7.332031 7.421875 6.945312 7.9375 6.945312 C 8.453125 6.945312 8.875 7.332031 8.925781 7.832031 C 8.929688 7.800781 8.929688 7.765625 8.929688 7.730469 C 8.929688 7.179688 8.488281 6.738281 7.9375 6.738281 Z M 4.960938 7.398438 C 4.777344 7.398438 4.628906 7.546875 4.628906 7.730469 C 4.628906 7.765625 4.636719 7.800781 4.648438 7.832031 C 4.691406 7.699219 4.8125 7.605469 4.960938 7.605469 C 5.109375 7.605469 5.234375 7.699219 5.277344 7.832031 C 5.285156 7.800781 5.292969 7.765625 5.292969 7.730469 C 5.292969 7.546875 5.144531 7.398438 4.960938 7.398438 Z M 10.914062 7.398438 C 10.730469 7.398438 10.585938 7.546875 10.585938 7.730469 C 10.585938 7.765625 10.589844 7.800781 10.601562 7.832031 C 10.644531 7.699219 10.769531 7.605469 10.914062 7.605469 C 11.0625 7.605469 11.1875 7.699219 11.230469 7.832031 C 11.238281 7.800781 11.246094 7.765625 11.246094 7.730469 C 11.246094 7.546875 11.097656 7.398438 10.914062 7.398438 Z M 3.640625 7.832031 C 3.640625 7.867188 3.636719 7.902344 3.636719 7.9375 C 3.636719 8.667969 4.226562 9.257812 4.960938 9.257812 C 5.433594 9.257812 5.847656 9.011719 6.082031 8.640625 C 6.367188 9.390625 7.085938 9.921875 7.9375 9.921875 C 8.789062 9.921875 9.511719 9.390625 9.792969 8.640625 C 10.027344 9.011719 10.441406 9.257812 10.914062 9.257812 C 11.648438 9.257812 12.238281 8.667969 12.238281 7.9375 C 12.238281 7.902344 12.238281 7.867188 12.234375 7.832031 C 12.183594 8.515625 11.613281 9.054688 10.914062 9.054688 C 10.441406 9.054688 10.027344 8.808594 9.792969 8.433594 C 9.511719 9.183594 8.789062 9.714844 7.9375 9.714844 C 7.085938 9.714844 6.367188 9.183594 6.082031 8.433594 C 5.847656 8.808594 5.433594 9.054688 4.960938 9.054688 C 4.261719 9.054688 3.695312 8.515625 3.640625 7.832031 Z M 3.640625 7.832031 "/>
<path style="fill:none;stroke-width:11.338583;stroke-linecap:round;stroke-linejoin:round;stroke:rgb(12.941177%,12.941177%,12.941177%);stroke-opacity:1;stroke-miterlimit:4;" d="M 959.908384 694.894307 C 856.926087 694.894307 770.005249 759.140144 735.520351 849.840149 C 707.1766 804.962542 657.102639 775.201603 599.94274 775.201603 C 511.132319 775.201603 439.800544 846.533378 439.800544 935.343799 C 439.800544 1023.681825 511.132319 1095.013599 599.94274 1095.013599 C 657.102639 1095.013599 707.1766 1065.25266 735.520351 1020.375054 C 770.005249 1111.075058 856.926087 1175.320895 959.908384 1175.320895 C 1062.890681 1175.320895 1150.283915 1111.075058 1184.296416 1020.375054 C 1212.640168 1065.25266 1262.714129 1095.013599 1319.874028 1095.013599 C 1408.684449 1095.013599 1480.016224 1023.681825 1480.016224 935.343799 C 1480.016224 846.533378 1408.684449 775.201603 1319.874028 775.201603 C 1262.714129 775.201603 1212.640168 804.962542 1184.296416 849.840149 C 1150.283915 759.140144 1062.890681 694.894307 959.908384 694.894307 Z M 959.908384 814.882855 C 1026.5162 814.882855 1079.896932 868.735983 1079.896932 935.343799 C 1079.896932 1001.479219 1026.5162 1055.332347 959.908384 1055.332347 C 893.300568 1055.332347 839.919836 1001.479219 839.919836 935.343799 C 839.919836 868.735983 893.300568 814.882855 959.908384 814.882855 Z M 599.94274 895.190151 C 622.145345 895.190151 640.096388 913.141194 640.096388 935.343799 C 640.096388 957.074009 622.145345 975.025051 599.94274 975.025051 C 577.740135 975.025051 559.789092 957.074009 559.789092 935.343799 C 559.789092 913.141194 577.740135 895.190151 599.94274 895.190151 Z M 1319.874028 895.190151 C 1342.076633 895.190151 1360.027676 913.141194 1360.027676 935.343799 C 1360.027676 957.074009 1342.076633 975.025051 1319.874028 975.025051 C 1297.671422 975.025051 1280.192776 957.074009 1280.192776 935.343799 C 1280.192776 913.141194 1297.671422 895.190151 1319.874028 895.190151 Z M 1319.874028 895.190151 " transform="matrix(0.00826902,0,0,0.00826902,0,0)"/>
</g>
</svg>
